symbols/web/mic_external_off/materialsymbolsrounded/mic_external_off_grad200_20px.svg

<svg xmlns="http://www.w3.org/2000/svg" height="20" width="20"><path d="M7.729 5.292 3.812 1.396q.355-.271.803-.458.447-.188.968-.188 1.188 0 2 .823.813.823.813 2.01 0 .5-.198.948-.198.448-.469.761Zm9.521 9.52-2.292-2.291V4.542q0-.604-.437-1.052-.438-.448-1.042-.448-.604 0-1.041.448Q12 3.938 12 4.542v5.041L9.708 7.292v-2.75q0-1.584 1.104-2.688Q11.917.75 13.479.75q1.563 0 2.667 1.104 1.104 1.104 1.104 2.688Zm-.833 4.834L12 15.271v.187q0 1.584-1.094 2.688T8.229 19.25q-1.583 0-2.667-1.104-1.083-1.104-1.104-2.688h-.416q-.209 0-.386-.156-.177-.156-.198-.364l-.729-7.355q-.041-.271.083-.604.126-.333.438-.5h-.042L.354 3.625Q0 3.271.031 2.823q.031-.448.365-.781.354-.354.812-.354.459 0 .813.354l16.021 16.02q.354.355.354.792 0 .438-.354.792-.354.354-.813.354-.458 0-.812-.354ZM5.583 13.417h.042l.396-4.125-.646-.646h-.271Zm2.646 3.541q.604 0 1.042-.448.437-.448.437-1.052v-2.479l-1.562-1.583-.375 3.542q-.021.208-.188.364-.166.156-.375.156H6.75q.021.604.448 1.052.427.448 1.031.448ZM5.104 8.646h.917-.438Z"/></svg>

<svg xmlns="http://www.w3.org/2000/svg" height="20" width="20"><path d="M7.729 5.292 3.812 1.396Q4.167 1.125 4.615 0.938Q5.062 0.75 5.583 0.75Q6.771 0.75 7.583 1.573Q8.396 2.396 8.396 3.583Q8.396 4.083 8.198 4.531Q8 4.979 7.729 5.292ZM17.25 14.812 14.958 12.521V4.542Q14.958 3.938 14.521 3.49Q14.083 3.042 13.479 3.042Q12.875 3.042 12.438 3.49Q12 3.938 12 4.542V9.583L9.708 7.292V4.542Q9.708 2.958 10.812 1.854Q11.917 0.75 13.479 0.75Q15.042 0.75 16.146 1.854Q17.25 2.958 17.25 4.542ZM16.417 19.646 12 15.271V15.458Q12 17.042 10.906 18.146Q9.812 19.25 8.229 19.25Q6.646 19.25 5.562 18.146Q4.479 17.042 4.458 15.458H4.042Q3.833 15.458 3.656 15.302Q3.479 15.146 3.458 14.938L2.729 7.583Q2.688 7.312 2.812 6.979Q2.938 6.646 3.25 6.479H3.208L0.354 3.625Q0 3.271 0.031 2.823Q0.062 2.375 0.396 2.042Q0.75 1.688 1.208 1.688Q1.667 1.688 2.021 2.042L18.042 18.062Q18.396 18.417 18.396 18.854Q18.396 19.292 18.042 19.646Q17.688 20 17.229 20Q16.771 20 16.417 19.646ZM5.583 13.417H5.625L6.021 9.292L5.375 8.646H5.104ZM8.229 16.958Q8.833 16.958 9.271 16.51Q9.708 16.062 9.708 15.458V12.979L8.146 11.396L7.771 14.938Q7.75 15.146 7.583 15.302Q7.417 15.458 7.208 15.458H6.75Q6.771 16.062 7.198 16.51Q7.625 16.958 8.229 16.958ZM5.104 8.646H5.375H6.021H5.625H5.583Z"/></svg>
